assets/gcpcloudnat/original.svg

<svg height="24" width="24" xmlns="http://www.w3.org/2000/svg"><path d="m15.3 11.17v1.66h4.5v-1.66zm-5.44-5.28h-2.86v1.67h3.93a10 10 0 0 0 -1.07-1.67m1.14 10.55h-3.4v1.67h2.29a10.7 10.7 0 0 0 1.11-1.67m1-4.44a8 8 0 0 0 0-.83h-7.5v1.66h7.5a8 8 0 0 0 0-.83" fill="#4285f4"/><path d="m3.67 12.48a.48.48 0 1 1 .47-.48.48.48 0 0 1 -.47.48m0-2.15a1.67 1.67 0 1 0 1.66 1.67 1.67 1.67 0 0 0 -1.66-1.67m2.5 7.42a.48.48 0 1 1 .47-.48.47.47 0 0 1 -.47.48m0-2.14a1.67 1.67 0 1 0 1.66 1.66 1.67 1.67 0 0 0 -1.66-1.66m0-8.41a.48.48 0 1 1 .47-.47.47.47 0 0 1 -.47.47m0-2.14a1.67 1.67 0 1 0 0 3.33 1.67 1.67 0 0 0 0-3.33" fill="#669df6"/><path d="m18.67 14.5v-5l3.33 2.5zm-9.17 7.5-.86-1.5a10.73 10.73 0 0 0 4.19-8.5 10.89 10.89 0 0 0 -4.2-8.5l.87-1.5a12.53 12.53 0 0 1 5 10 12.46 12.46 0 0 1 -5 10" fill="#4285f4"/></svg>

<svg xmlns="http://www.w3.org/2000/svg" width="24" height="24"><g data-name="Product Icons"><path d="M15.3 11.17v1.66h4.5v-1.66ZM9.86 5.89H7v1.67h3.93a10 10 0 0 0-1.07-1.67M11 16.44H7.6v1.67h2.29A10.7 10.7 0 0 0 11 16.44M12 12a8 8 0 0 0 0-.83H4.5v1.66H12a8 8 0 0 0 0-.83" fill="#4285f4"/><path d="M3.67 12.48a.48.48 0 1 1 .47-.48.48.48 0 0 1-.47.48m0-2.15A1.67 1.67 0 1 0 5.33 12a1.67 1.67 0 0 0-1.66-1.67m2.5 7.42a.48.48 0 1 1 .47-.48.47.47 0 0 1-.47.48m0-2.14a1.67 1.67 0 1 0 1.66 1.66 1.67 1.67 0 0 0-1.66-1.66m0-8.41a.48.48 0 1 1 .47-.47.47.47 0 0 1-.47.47m0-2.14a1.67 1.67 0 1 0 0 3.33 1.67 1.67 0 0 0 0-3.33" fill="#669df6"/><path d="M18.67 14.5v-5L22 12zM9.5 22l-.86-1.5a10.73 10.73 0 0 0 4.19-8.5 10.89 10.89 0 0 0-4.2-8.5L9.5 2a12.53 12.53 0 0 1 5 10 12.46 12.46 0 0 1-5 10" fill="#4285f4"/></g></svg>
